packages/swarm-icons/src/icons/solid/Eye Hidden.svg

<svg xmlns="http://www.w3.org/2000/svg" width="18" height="18" viewBox="0 0 18 18">
  <path fill="#A2A2A2" d="M14.2876787,5.43288406 C15.2285757,6.35805594 16.1326828,7.54709458 17,9 C14.6121853,13 11.9455187,15 9,15 C7.84031439,15 6.72385335,14.689982 5.65061689,14.0699459 L3.62132034,16.0992424 C3.23079605,16.4897667 2.59763107,16.4897667 2.20710678,16.0992424 C1.81658249,15.7087181 1.81658249,15.0755531 2.20710678,14.6850288 L4.02683829,12.8652973 C2.9724863,11.9025279 1.96354021,10.6140955 1,9 C3.38781467,5 6.05448133,3 9,3 C10.2969985,3 11.5399304,3.38777998 12.7287957,4.16333995 L14.9350288,1.95710678 C15.3255531,1.56658249 15.9587181,1.56658249 16.3492424,1.95710678 C16.7397667,2.34763107 16.7397667,2.98079605 16.3492424,3.37132034 L14.2876787,5.43288406 Z M11.2729232,5.61921245 C10.5193786,5.20161186 9.76172849,5 9,5 C7.09680328,5 5.2190664,6.25858642 3.36721265,9 C4.05473704,10.0177849 4.74582906,10.8311827 5.44046705,11.4516686 L6.39797655,10.4941591 C6.14480598,10.0542216 6,9.5440214 6,9 C6,7.34314575 7.34314575,6 9,6 C9.5440214,6 10.0542216,6.14480598 10.4941591,6.39797655 L11.2729232,5.61921245 Z M12.8759593,6.84460342 L11.7999566,7.92060611 C11.9291628,8.25554695 12,8.61950102 12,9 C12,10.6568542 10.6568542,12 9,12 C8.61950102,12 8.25554695,11.9291628 7.92060611,11.7999566 L7.1349353,12.5856274 C7.75387287,12.8645158 8.37556609,13 9,13 C10.9031967,13 12.7809336,11.7414136 14.6327874,9 C14.0497393,8.136878 13.4641256,7.42074531 12.8759593,6.84460342 Z"/>
</svg>

<svg xmlns="http://www.w3.org/2000/svg" width="18" height="18"><path fill="#A2A2A2" d="M14.288 5.433C15.228 6.358 16.133 7.547 17 9c-2.388 4-5.054 6-8 6-1.16 0-2.276-.31-3.35-.93L3.622 16.1a1 1 0 11-1.414-1.415l1.82-1.82C2.972 11.903 1.964 10.615 1 9c2.388-4 5.054-6 8-6 1.297 0 2.54.388 3.729 1.163l2.206-2.206a1 1 0 011.414 1.414l-2.061 2.062zm-3.015.186C10.519 5.202 9.762 5 9 5 7.097 5 5.22 6.259 3.367 9c.688 1.018 1.379 1.831 2.073 2.452l.958-.958a3 3 0 014.096-4.096l.779-.779zm1.603 1.226L11.8 7.92a3 3 0 01-3.88 3.88l-.785.785C7.754 12.865 8.375 13 9 13c1.903 0 3.78-1.259 5.633-4-.583-.863-1.169-1.58-1.757-2.155z"/></svg>
